src-assets/img/etre-appele.svg

<svg width="44" height="45" viewBox="0 0 44 45" fill="none" xmlns="http://www.w3.org/2000/svg">
<g id="_&#195;&#171;&#195;&#142;&#195;&#147;&#195;&#136;_1" clip-path="url(#clip0_146_40854)">
<path id="Vector" d="M3.97407 17.5199C4.02901 10.3646 9.10185 4.24971 15.9255 2.03052C22.7491 -0.18866 30.9187 1.59926 35.8615 6.97562C38.528 9.87403 40.0242 13.6188 40.0553 17.5217C40.0608 18.2153 41.1596 18.2171 41.1541 17.5217C41.0955 9.91716 35.748 3.43571 28.516 1.03144C21.284 -1.37282 12.4294 0.585807 7.23205 6.38803C4.46671 9.47692 2.9064 13.4068 2.87526 17.5217C2.86977 18.2153 3.96858 18.2171 3.97407 17.5217L3.97407 17.5199Z" fill="white"/>
<path id="Vector_2" d="M2.60605 28.2222C3.62245 28.2222 4.77803 28.3804 5.68455 27.8287C6.59106 27.2771 6.91887 26.3247 6.92803 25.3184C6.94634 23.4245 6.99396 21.5144 6.92803 19.6222C6.88591 18.4129 6.14604 17.3455 4.91172 17.0437C4.07662 16.8388 2.79651 16.837 1.96507 17.049C-0.46879 17.6726 0.0458197 20.5602 0.0458197 22.4164C0.0458197 24.5763 -0.543875 28.03 2.60605 28.2222C3.31295 28.2654 3.30928 27.1872 2.60605 27.1441C0.608044 27.0219 1.14463 24.1936 1.14463 22.8656L1.14463 20.3248C1.14463 19.6366 1.05856 18.8927 1.65924 18.3895C2.25992 17.8864 3.47044 18.014 4.22679 18.0499C5.28165 18.0984 5.80725 18.8262 5.82922 19.7965C5.86402 21.3904 5.82922 22.9878 5.82922 24.5817C5.82922 25.304 5.95009 26.1432 5.37688 26.7038C4.7066 27.3615 3.47227 27.1477 2.60605 27.1477C1.89915 27.1477 1.89731 28.2258 2.60605 28.2258L2.60605 28.2222Z" fill="white"/>
<path id="Vector_3" d="M41.4252 27.1441C40.7256 27.1441 39.755 27.3058 39.103 27.0093C38.2716 26.6319 38.202 25.8485 38.202 25.0758L38.202 20.1703C38.202 19.4156 38.2185 18.6627 39.0023 18.2386C39.6304 17.8972 40.7054 18.0104 41.4014 18.0481C43.3957 18.1577 42.8866 20.8154 42.8866 22.1487L42.8866 24.9932C42.8866 26.003 42.7364 27.065 41.4252 27.1459C40.7219 27.189 40.7183 28.2671 41.4252 28.224C42.8774 28.136 43.9286 27.1225 43.9854 25.685C44.0165 24.8961 43.9854 24.1001 43.9854 23.3113L43.9854 20.0858C43.9854 19.0777 43.8517 18.1451 42.9617 17.4821C42.0716 16.819 40.8812 16.9394 39.8374 16.97C38.5042 17.0095 37.3431 17.8343 37.1361 19.1802C37.0226 19.9205 37.1032 20.7183 37.1032 21.4622L37.1032 24.7811C37.1032 25.8467 37.138 26.8584 38.0481 27.6149C38.9583 28.3714 40.2751 28.224 41.4252 28.224C42.1321 28.224 42.1339 27.1459 41.4252 27.1459L41.4252 27.1441Z" fill="white"/>
<path id="Vector_4" d="M28.8218 43.4205C30.2722 43.4205 31.7189 43.4654 33.1437 43.1545C35.1326 42.7215 37.0061 41.717 38.429 40.2831C39.852 38.8491 40.7603 37.0846 41.0515 35.1529C41.2237 34.0011 41.1559 32.8115 41.1559 31.6507L41.1559 27.9023C41.1559 27.2087 40.0571 27.2069 40.0571 27.9023L40.0571 31.9041C40.0571 33.4494 40.1267 34.9642 39.6029 36.452C38.777 38.7934 36.8321 40.6622 34.5173 41.6038C32.6694 42.3567 30.7776 42.3423 28.8218 42.3423C28.1149 42.3423 28.113 43.4205 28.8218 43.4205Z" fill="white"/>
<path id="Vector_5" d="M27.4684 43.9129L23.4047 43.9129C22.8022 43.9129 22.1722 43.965 21.5715 43.9129C20.436 43.8141 20.2547 42.0064 21.4616 41.85C22.6685 41.6937 24.0896 41.85 25.3532 41.85C25.9942 41.85 26.659 41.7997 27.2999 41.85C27.82 41.8914 28.1918 42.0549 28.2724 42.6389C28.353 43.2229 28.1625 43.8518 27.4684 43.9129C26.7743 43.974 26.7634 45.0539 27.4684 44.991C28.6405 44.8886 29.3529 44.1016 29.3712 42.9533C29.3859 41.9632 28.9225 41.0396 27.8585 40.8132C27.3238 40.7 26.7121 40.7719 26.1718 40.7719L23.4065 40.7719C21.9158 40.7719 19.7731 40.5006 19.5717 42.5203C19.4783 43.4655 19.7584 44.425 20.7144 44.8347C21.2345 45.0575 21.8498 44.991 22.4029 44.991L27.4703 44.991C28.1772 44.991 28.179 43.9129 27.4703 43.9129L27.4684 43.9129Z" fill="white"/>
<path id="Vector_6" d="M15.0885 6.22804C17.0077 10.8964 20.0899 15.0491 24.4503 17.784C27.5655 19.739 31.2611 20.9483 34.9751 20.9663C35.682 20.9699 35.6838 19.8917 34.9751 19.8881C26.3073 19.845 19.2566 13.5055 16.147 5.94234C15.8851 5.30623 14.8229 5.58475 15.0867 6.22984L15.0885 6.22804Z" fill="white"/>
<path id="Vector_7" d="M11.0668 17.8361C12.1345 14.4345 14.3742 11.6601 17.4747 9.81826C18.079 9.45887 17.5278 8.52628 16.9198 8.88746C13.5739 10.8748 11.1584 13.8793 10.0064 17.5486C9.79768 18.2134 10.858 18.4973 11.0668 17.8361Z" fill="white"/>
<path id="Vector_8" d="M33.5192 27.7353C34.303 25.3724 34.5613 22.898 34.2994 20.4273C34.2261 19.7445 33.1273 19.7373 33.2006 20.4273C33.4533 22.81 33.2152 25.1693 32.4589 27.4478C32.2391 28.1091 33.2995 28.393 33.5192 27.7353Z" fill="white"/>
<path id="Vector_9" d="M16.8759 32.4091C19.6504 35.6651 24.3808 35.6651 27.1553 32.4091C27.6058 31.8808 26.8329 31.1135 26.3788 31.6472C23.965 34.4791 20.0679 34.4809 17.6542 31.6472C17.2 31.1135 16.4272 31.8808 16.8777 32.4091L16.8759 32.4091Z" fill="white"/>
<path id="Vector_10" d="M18.5846 21.9924C17.7275 21.0256 16.2881 21.0256 15.431 21.9924C14.9695 22.5135 15.7423 23.279 16.2075 22.7543C16.6727 22.2296 17.3191 22.2044 17.8063 22.7543C18.2934 23.3041 19.0461 22.5135 18.5828 21.9924L18.5846 21.9924Z" fill="white"/>
<path id="Vector_11" d="M28.5984 21.9924C27.7413 21.0256 26.3019 21.0256 25.4448 21.9924C24.9833 22.5135 25.7561 23.279 26.2213 22.7543C26.6865 22.2296 27.3329 22.2044 27.8201 22.7543C28.3072 23.3041 29.0599 22.5135 28.5966 21.9924L28.5984 21.9924Z" fill="white"/>
</g>
<defs>
<clipPath id="clip0_146_40854">
<rect width="44" height="45" fill="white"/>
</clipPath>
</defs>
</svg>

<svg width="44" height="45" viewBox="0 0 44 45" fill="none" xmlns="http://www.w3.org/2000/svg"><g clip-path="url(#clip0_146_40854)" fill="#fff"><path d="M3.974 17.52C4.03 10.365 9.102 4.25 15.925 2.03 22.75-.188 30.92 1.6 35.861 6.977c2.667 2.898 4.163 6.643 4.194 10.546.006.693 1.105.695 1.1 0-.06-7.605-5.407-14.086-12.639-16.49C21.284-1.374 12.429.585 7.232 6.387c-2.765 3.089-4.326 7.019-4.357 11.134-.005.693 1.094.695 1.1 0v-.002z"/><path d="M2.606 28.222c1.016 0 2.172.158 3.079-.393.906-.552 1.234-1.504 1.243-2.51.018-1.895.066-3.805 0-5.697-.042-1.21-.782-2.276-2.016-2.578-.835-.205-2.115-.207-2.947.005-2.434.624-1.92 3.511-1.92 5.367 0 2.16-.589 5.614 2.561 5.806.707.043.703-1.035 0-1.078-1.998-.122-1.461-2.95-1.461-4.278v-2.541c0-.688-.086-1.432.514-1.935.6-.504 1.811-.376 2.568-.34 1.055.048 1.58.776 1.602 1.747.035 1.593 0 3.19 0 4.785 0 .722.121 1.561-.452 2.122-.67.657-1.905.444-2.77.444-.708 0-.71 1.078-.001 1.078v-.004zm38.819-1.078c-.7 0-1.67.162-2.322-.135-.831-.377-.901-1.16-.901-1.933V20.17c0-.754.017-1.507.8-1.931.628-.342 1.703-.229 2.4-.19 1.994.109 1.485 2.766 1.485 4.1v2.844c0 1.01-.15 2.072-1.462 2.153-.703.043-.707 1.121 0 1.078 1.452-.088 2.504-1.102 2.56-2.539.032-.789 0-1.585 0-2.374v-3.225c0-1.008-.133-1.94-1.023-2.604-.89-.663-2.08-.543-3.125-.512-1.333.04-2.494.864-2.7 2.21-.114.74-.034 1.538-.034 2.282v3.32c0 1.065.035 2.076.945 2.833.91.756 2.227.609 3.377.609.707 0 .709-1.078 0-1.078v-.002z"/><path d="M28.822 43.42c1.45 0 2.897.045 4.322-.266 1.989-.433 3.862-1.437 5.285-2.87 1.423-1.435 2.331-3.2 2.622-5.131.173-1.152.105-2.341.105-3.502v-3.749c0-.693-1.099-.695-1.099 0v4.002c0 1.545.07 3.06-.454 4.548-.826 2.341-2.77 4.21-5.086 5.152-1.848.753-3.74.738-5.695.738-.707 0-.709 1.078 0 1.078z"/><path d="M27.468 43.913h-4.063c-.603 0-1.233.052-1.834 0-1.135-.099-1.316-1.907-.11-2.063 1.208-.156 2.629 0 3.892 0 .641 0 1.306-.05 1.947 0 .52.041.892.205.972.789.081.584-.11 1.213-.804 1.274-.694.061-.705 1.14 0 1.078 1.172-.102 1.885-.89 1.903-2.038.015-.99-.448-1.913-1.512-2.14-.535-.113-1.147-.041-1.687-.041h-2.765c-1.491 0-3.634-.271-3.835 1.748-.094.945.186 1.905 1.142 2.315.52.222 1.136.156 1.689.156h5.067c.707 0 .709-1.078 0-1.078h-.002zM15.088 6.228c1.92 4.668 5.002 8.821 9.362 11.556 3.116 1.955 6.811 3.164 10.525 3.182.707.004.709-1.074 0-1.078-8.668-.043-15.718-6.383-18.828-13.946-.262-.636-1.324-.357-1.06.288l.002-.002z"/><path d="M11.067 17.836c1.067-3.401 3.307-6.176 6.408-8.018.604-.36.053-1.292-.555-.93-3.346 1.987-5.762 4.991-6.914 8.66-.208.665.852.95 1.06.288zm22.453 9.899a17.325 17.325 0 00.78-7.308c-.074-.683-1.173-.69-1.1 0a16.567 16.567 0 01-.741 7.02c-.22.662.84.946 1.06.288zM16.876 32.41c2.774 3.255 7.505 3.255 10.28 0 .45-.53-.323-1.296-.777-.763-2.414 2.832-6.311 2.834-8.725 0-.454-.534-1.227.234-.776.762h-.002zm1.709-10.418a2.077 2.077 0 00-3.154 0c-.461.521.311 1.287.777.762.465-.524 1.111-.55 1.598 0 .487.55 1.24-.24.777-.762h.002zm10.013 0a2.077 2.077 0 00-3.153 0c-.462.521.311 1.287.776.762.465-.524 1.112-.55 1.6 0 .486.55 1.239-.24.776-.762h.001z"/></g><defs><clipPath id="clip0_146_40854"><path fill="#fff" d="M0 0h44v45H0z"/></clipPath></defs></svg>
